!!! OTL: Berkowitz145
!!! Chapter: 1
!!! Section: I
!!! Page: 33
!!! Mode: 
!!! Encoder: DJB
**kern
*staff1
*I"Piano
=1-
*clefG2
*k[b-e-a-]
*E-:
*met(c|)
*M2/2
4ee-\
4b-\
4b-\
4a-/
=2
8g/L
8a-/
8g/
8f/J
4e-/
4b-\
=3
4ee-\
4b-\
4b-\
4a-/
=4
4r
4g/
2f/
=5
4ee-\
4r
4b-\
4a-/
=6
4r
8g/L
8a-/J
8g/L
8f/J
4e-/
=7
4r
4cc\
4b-\
4a-/
=8
4.g/
8f/
2e-/
==
*-
